X:5
T:Une oie, deux oies
R:bourree
C:Jean Blanchard
O:France
Z:id:hn-bourree-5
M:3/8
L:1/16
Q:1/8=195
K:Dmix
F2 | DFA2D2 | B4c2 | BcBAG2 | B2A2F2 |
DFA2D2 | B4c2 | BcBAGB | A4 :|
|: F2 | F2A3G | E4B2 | ABAGFE | F2D2F2 |
F2A3G | E4B2 | ABAGFE | D4 :|

